X:139
T:Grant's Rant
M: C|
L:1/8
B:Thompson's Compleat Collection of 200 Favourite Country Dances, vol. 3 (London, 1773)
Z:Transcribed and edited by Flynn Titford-Mock, 2007
Z:abc's:AK/Fiddler's Companion
K:D
FG | A3B AFDF | AFdB AFEF | GBGE FAFD | E2 EE E3A | FDFA d3f |
edcB A2 Bc | d2 cB c2B2 | A2 AA A2::(cd) | e3f ecAc | ecaf ecAc |
dfdB cec^A | B2 BB B2 (Bc) | d3B AFDF | GABc d2 cB | {B}A2 (GF) EGFE | D2 DD D2 :|

